src/pos-icons/play-box-outline.svg

<svg height="24" viewBox="0 0 24 24" width="24" xmlns="http://www.w3.org/2000/svg"><path d="m19 19h-14v-14h14m0-2h-14a2 2 0 0 0 -2 2v14a2 2 0 0 0 2 2h14a2 2 0 0 0 2-2v-14c0-1.11-.9-2-2-2m-9 5v8l5-4z"/></svg>

<?xml version="1.0" encoding="UTF-8"?><!DOCTYPE svg PUBLIC "-//W3C//DTD SVG 1.1//EN" "http://www.w3.org/Graphics/SVG/1.1/DTD/svg11.dtd"><svg xmlns="http://www.w3.org/2000/svg" xmlns:xlink="http://www.w3.org/1999/xlink" version="1.1" id="mdi-play-box-outline" width="24" height="24" viewBox="0 0 24 24"><path d="M19,19H5V5H19M19,3H5A2,2 0 0,0 3,5V19A2,2 0 0,0 5,21H19A2,2 0 0,0 21,19V5C21,3.89 20.1,3 19,3M10,8V16L15,12L10,8Z" /></svg>
